X:181 
T: Rose Waltz, The
T:measures 1-16
B:RC3.144
F:file ID roche.3/181rose
Z:bill@capeirish.com
Q:120
L:1/8
M:3/4
R:waltz
K:D
(3ABA|F2A3f|d4 (3ded|c2 b3a|g4A2|
"5"A2B2c2|d2e2f2|g2c'3b|b4a2|
"9"F2A3f|d4 (3ded|c2 b3a|g4e2|
"13"bagfed|cBAGFE|FGABce|d6||

